media/img/products/vpn/resource-center/icons/ios_icon.svg

<svg width="52" height="52" viewBox="0 0 52 52" fill="none" xmlns="http://www.w3.org/2000/svg">
<path d="M50.6191 7.22397C50.1349 5.94881 48.9727 4.15713 47.3263 2.88196C46.3578 2.1556 45.2602 1.44539 43.7107 0.99343C42.032 0.509191 39.9659 0.347778 37.4478 0.347778H14.2043C11.6702 0.347778 9.62022 0.509191 7.95766 1.00957C6.4081 1.47767 5.26206 2.17175 4.32587 2.8981C2.67946 4.15713 1.51728 5.96495 1.0169 7.24011C0.0161412 9.80658 0 12.712 0 14.5521V37.7956C0 39.6357 0.0161412 42.5411 1.0169 45.1238C1.51728 46.3989 2.67946 48.1906 4.32587 49.4658C5.27821 50.1921 6.4081 50.9023 7.95766 51.3543C9.62022 51.8385 11.6702 52 14.2043 52H37.4478C39.982 52 42.032 51.8385 43.6945 51.3382C45.2441 50.8701 46.3901 50.176 47.3263 49.4496C48.9727 48.1906 50.1349 46.3828 50.6353 45.1076C51.6522 42.5411 51.6522 39.6196 51.6522 37.7795V14.536C51.6522 12.6959 51.636 9.79044 50.6353 7.20783L50.6191 7.22397ZM10.2336 35.8586H8.31277V24.3822H10.2336V35.8586ZM9.28125 22.4452C8.6356 22.4452 8.08679 21.9126 8.08679 21.2508C8.08679 20.589 8.61946 20.0563 9.28125 20.0563C9.94304 20.0563 10.4918 20.589 10.4918 21.2508C10.4757 21.9126 9.94304 22.4452 9.28125 22.4452ZM20.8223 36.1492C15.7539 36.1492 12.5579 32.5335 12.5579 26.7711C12.5579 21.0086 15.7539 17.3769 20.8223 17.3769C25.8907 17.3769 29.0866 21.0086 29.0866 26.7711C29.0866 32.5335 25.8907 36.1492 20.8223 36.1492ZM37.5447 36.1492C33.7353 36.1492 31.0559 34.0508 30.8783 30.9194H32.6054C32.7991 33.0985 34.8491 34.5835 37.7061 34.5835C40.434 34.5835 42.3871 33.0985 42.3871 31.0485C42.3871 29.3537 41.2088 28.3368 38.5132 27.6589L36.2534 27.0778C32.8798 26.2223 31.3787 24.8019 31.3787 22.3968C31.3787 19.4591 34.0259 17.3607 37.6092 17.3607C41.1603 17.3607 43.7429 19.4591 43.8559 22.3484H42.1288C41.9674 20.2984 40.1434 18.9264 37.5608 18.9264C35.0428 18.9264 33.1704 20.3307 33.1704 22.3322C33.1704 23.8979 34.3003 24.818 36.9797 25.4959L38.949 25.9963C42.613 26.9164 44.1465 28.3207 44.1465 30.8548C44.1465 34.0508 41.58 36.1492 37.5447 36.1492ZM27.3272 26.7711C27.3272 31.5328 24.8092 34.5512 20.8223 34.5512C16.8354 34.5512 14.3335 31.5328 14.3335 26.7711C14.3335 21.9933 16.8354 18.9748 20.8223 18.9748C24.8092 18.9748 27.3272 21.9933 27.3272 26.7711Z" fill="black"/>
</svg>

<svg width="52" height="52" fill="none" xmlns="http://www.w3.org/2000/svg"><path d="M50.62 7.224c-.485-1.275-1.647-3.067-3.294-4.342-.968-.726-2.066-1.437-3.615-1.889C42.032.51 39.966.348 37.448.348H14.204c-2.534 0-4.584.161-6.246.662a10.938 10.938 0 0 0-3.632 1.888c-1.647 1.26-2.809 3.067-3.31 4.342C.017 9.807 0 12.712 0 14.552v23.244c0 1.84.016 4.745 1.017 7.328.5 1.275 1.662 3.067 3.309 4.342.952.726 2.082 1.436 3.632 1.888 1.662.485 3.712.646 6.246.646h23.244c2.534 0 4.584-.161 6.246-.662a10.937 10.937 0 0 0 3.632-1.888c1.647-1.26 2.809-3.067 3.31-4.342 1.016-2.567 1.016-5.488 1.016-7.328V14.535c0-1.84-.016-4.746-1.017-7.328l-.016.016ZM10.233 35.859H8.313V24.382h1.92V35.86ZM9.28 22.445a1.202 1.202 0 0 1-1.194-1.194c0-.662.532-1.195 1.194-1.195.662 0 1.21.533 1.21 1.195a1.216 1.216 0 0 1-1.21 1.194ZM20.822 36.15c-5.068 0-8.264-3.616-8.264-9.378 0-5.762 3.196-9.394 8.264-9.394 5.069 0 8.265 3.632 8.265 9.394 0 5.762-3.196 9.378-8.265 9.378Zm16.723 0c-3.81 0-6.49-2.098-6.667-5.23h1.727c.194 2.18 2.244 3.665 5.101 3.665 2.728 0 4.681-1.486 4.681-3.536 0-1.694-1.178-2.711-3.874-3.39l-2.26-.58c-3.373-.856-4.874-2.276-4.874-4.681 0-2.938 2.647-5.036 6.23-5.036 3.551 0 6.134 2.098 6.247 4.987h-1.727c-.162-2.05-1.986-3.422-4.568-3.422-2.518 0-4.39 1.405-4.39 3.406 0 1.566 1.13 2.486 3.809 3.164l1.969.5c3.664.92 5.198 2.325 5.198 4.859 0 3.196-2.567 5.294-6.602 5.294Zm-10.218-9.378c0 4.762-2.518 7.78-6.505 7.78s-6.488-3.018-6.488-7.78c0-4.778 2.501-7.796 6.488-7.796 3.987 0 6.505 3.018 6.505 7.796Z" fill="#000"/></svg>
